paginas/static/paginas/imagens/ia/runway.svg

<svg class="h-full w-auto" viewBox="0 0 139 27" fill="none" xmlns="http://www.w3.org/2000/svg"><path d="M37.7476 6.12349H41.5723L41.9307 8.11308C42.6791 6.53864 44.2901 5.76709 45.9917 5.76709C46.8268 5.76709 47.6658 5.97466 48.233 6.21357L47.3349 10.8155C46.7362 10.4591 45.9917 10.2202 45.0937 10.2202C43.5417 10.2202 42.2852 11.262 42.2852 13.5766V20.971H37.7476V6.12349Z" class="fill-current"></path><path d="M49.8058 15.4422V6.0293H54.4106V14.5807C54.4106 16.3036 55.409 17.2237 56.8628 17.2237C58.3484 17.2237 59.6185 16.096 59.6185 13.6019V6.0293H64.2233V20.8769H60.3773L59.8621 18.9191C59.1352 20.1055 57.3181 21.2332 55.0776 21.2332C52.0742 21.2332 49.8058 19.3302 49.8058 15.4422Z" class="fill-current"></path><path d="M66.5865 6.1234H70.3857L70.8946 8.08115C71.6126 6.89475 73.3761 5.76709 75.5933 5.76709C78.5246 5.76709 80.7379 7.6387 80.7379 11.5268V20.971H76.1891V12.4783C76.1891 10.728 75.2896 9.77656 73.7943 9.77656C72.4175 9.77656 71.1313 10.9042 71.1313 13.4571V20.971H66.5825V6.1234H66.5865Z" class="fill-current"></path><path d="M81.7864 6.0293H86.3361L89.0239 16.1599L91.4156 9.49679L90.2353 6.0293H94.7539L97.6793 16.1599L100.277 6.0293H104.854L100.009 20.971H95.3421L93.336 15.0251L91.2676 20.971H86.6283L81.7864 6.0293Z" class="fill-current"></path><path d="M105.117 13.5001C105.117 8.39406 108.801 5.76709 112.192 5.76709C114.274 5.76709 115.76 6.59215 116.501 7.44835L116.916 6.12124H121.107V20.879H117.124L116.501 19.4351C115.877 20.1706 114.541 21.2331 111.981 21.2331C108.327 21.2331 105.117 18.2209 105.117 13.5001ZM116.681 13.5001C116.681 11.1105 115.136 9.63554 113.172 9.63554C111.181 9.63554 109.664 11.1417 109.664 13.5001C109.664 15.8585 111.181 17.3686 113.172 17.3686C115.136 17.3647 116.681 15.8897 116.681 13.5001Z" class="fill-current"></path><path d="M125.867 27.0002L128.387 20.2008L122.417 6.0293H127.307L130.638 15.286L133.637 6.0293H138.408L130.519 27.0002H125.867Z" class="fill-current"></path><path d="M20.6987 26.9835C17.4276 27.2826 14.6925 23.4493 12.5958 21.5051C11.5356 29.1441 -0.00787819 28.42 4.03477e-06 20.6708C0.00394515 17.4161 4.03477e-06 9.46227 4.03477e-06 6.30987C4.03477e-06 5.17642 0.311352 4.03511 0.894637 3.06695C2.00209 1.18968 4.14212 -0.0224774 6.32155 0.0011361C9.6045 0.00507168 17.5104 -0.00279948 20.6987 0.0011361C28.4549 0.0011361 29.1918 11.5403 21.5264 12.5792L25.164 16.2118C29.1603 19.9703 26.1611 27.1488 20.6987 26.9835ZM18.9371 22.4379C21.1914 24.7599 24.7896 21.1627 22.4683 18.9116L16.1625 12.6147H12.6352C12.6352 12.9571 12.6352 15.893 12.6352 16.1409L18.0858 21.5839L18.9371 22.4379ZM3.81894 20.6747C3.76771 23.9019 8.86357 23.9137 8.81234 20.6747V6.30987C8.85569 4.70022 7.15313 3.42115 5.61609 3.91704C5.54909 3.93672 5.48604 3.95639 5.42692 3.98001C4.46135 4.33814 3.79136 5.32597 3.81894 6.3571C3.81894 6.3571 3.81894 20.6747 3.81894 20.6747ZM20.6987 8.80109C23.9383 8.85225 23.9344 3.76355 20.6987 3.81471H12.1347C12.785 5.18429 12.6195 7.31738 12.6313 8.80109C13.0963 8.80109 20.4702 8.80109 20.6987 8.80109Z" class="fill-current"></path></svg>

<svg class="h-full w-auto" viewBox="0 0 139 27" fill="none" xmlns="http://www.w3.org/2000/svg"><path d="M37.748 6.123h3.824l.359 1.99c.748-1.574 2.36-2.346 4.06-2.346.836 0 1.675.208 2.242.447l-.898 4.601a4.317 4.317 0 0 0-2.241-.595c-1.552 0-2.809 1.042-2.809 3.357v7.394h-4.537V6.123ZM49.806 15.442V6.03h4.605v8.552c0 1.723.998 2.643 2.452 2.643 1.485 0 2.755-1.128 2.755-3.622V6.029h4.605v14.848h-3.846l-.515-1.958c-.727 1.186-2.544 2.314-4.784 2.314-3.004 0-5.272-1.903-5.272-5.79ZM66.587 6.123h3.799l.509 1.958c.718-1.186 2.481-2.314 4.698-2.314 2.932 0 5.145 1.872 5.145 5.76v9.444h-4.549v-8.493c0-1.75-.9-2.701-2.395-2.701-1.376 0-2.663 1.127-2.663 3.68v7.514h-4.549V6.123h.005ZM81.786 6.03h4.55l2.688 10.13 2.392-6.663-1.18-3.468h4.518l2.925 10.13 2.598-10.13h4.577l-4.845 14.942h-4.667l-2.006-5.946-2.068 5.946h-4.64L81.786 6.029ZM105.117 13.5c0-5.106 3.684-7.733 7.075-7.733 2.082 0 3.568.825 4.309 1.681l.415-1.327h4.191V20.88h-3.983l-.623-1.444c-.624.736-1.96 1.798-4.52 1.798-3.654 0-6.864-3.012-6.864-7.733Zm11.564 0c0-2.39-1.545-3.864-3.509-3.864-1.991 0-3.508 1.506-3.508 3.864 0 2.358 1.517 3.869 3.508 3.869 1.964-.004 3.509-1.48 3.509-3.869ZM125.867 27l2.52-6.8-5.97-14.17h4.89l3.331 9.256 2.999-9.257h4.771L130.519 27h-4.652ZM20.699 26.983c-3.271.3-6.007-3.534-8.103-5.478C11.536 29.145-.008 28.42 0 20.671.004 17.416 0 9.462 0 6.31c0-1.134.311-2.275.895-3.243C2.002 1.19 4.142-.023 6.322.001c3.282.004 11.188-.004 14.377 0 7.756 0 8.493 11.54.827 12.578l3.638 3.633c3.996 3.758.997 10.937-4.465 10.771Zm-1.762-4.545c2.254 2.322 5.853-1.275 3.531-3.526l-6.305-6.297h-3.528v3.526l5.45 5.443.852.854ZM3.82 20.675c-.051 3.227 5.045 3.239 4.993 0V6.31C8.856 4.7 7.153 3.42 5.616 3.917a2.513 2.513 0 0 0-1.797 2.44v14.318ZM20.699 8.8c3.24.051 3.235-5.037 0-4.986h-8.564c.65 1.37.485 3.502.496 4.986H20.7Z" class="fill-current"/></svg>
